X:1
T:Garrett Barry's
R:jig
M:6/8
L:1/8
K:Dmix
DEF ~G3|AGA c2A|dcA d2e|=fed cAG|
~F3 GFG|AGA cde|dcA GEA|1 DED D2A:|2 DED DFA|]
dcA d2e|=fed e=fe|dcA c2d|egc ecA|
dcA d2e|=fed e=fe|dcA GEA|DED D2d|
dcA d2e|^fag efe|dcA c2d|egc ecA|
dcA d2e|^fag efe|dcA GEA|DED dAF|]
</abc>
